X:1
T:The Swallowtail Jig
R:jig
M:6/8
K:EDor
"Em"GEE BEE|GEG BAG|"D"FDD ADD|dcd AGF|
"Em"GEE BEE|GEG B2c|"D"dcd AGF|1 "Em"GEE
E2F:|2 "Em"GEE E3||
|:Bcd e2f|e2f edB|Bcd e2f|edB "D"d3|
Bcd "Em"e2f|e2f edB|"D"dcd AGF|1 "Em"GEE
E3:|2 "Em"GEE E2F||
After passing through abc4mac, the output looks like this:
